X:2
T:An enez e-kreiz ar mor
% Ton Doubl
C:Hengounel
O:Breizhat
M:6/8
K:G
W:1. Barzh un enez e kreizh ar mor
W:   Me 'm boa lakaet ma yar en gor
W:2  Seitek vi dezhi am boa lakaet
W:   Naonteg lapoused am boa bet
W:3. D'an taol-se oan ket bet war goll
W:   Da gaout ul lapous war an holl
E:12
|:ded B2A|B2c A3|ded B2G|B2A G3:|G2A B2B|c2B A2d|*
e2d B2A|B2c A3|G2A B2B|c2B A2d|e2d B2G|B2A G3||**
% Diwezh
